!!!OTL: Dziatki niewinne panienki ućciwe
**kern
*staff1
=1-
*clefC3
*k[b-]
1G
2c\
2B-/
=2
1c
2G/
2G/
=3
2B-/
2F/
1G
=4
2d\
1G
2c\
=5
2c\
2G/
1c
=6
!!linebreak:original
2G/
2G/
2G/
2d\
=7
2e-\
2d\
2c\
2B-/
=8
2c\
2G/
1c
=9
0G
==
*-
!!title: @{OTL}, @{GTL}, ed. @{ENC}
!!!pag:
!!!GTL: Hymnbook D
!!!EFL: 
!!!YEM: Creative Commons CC/BY/NC/SA 4.0
!!!ENC: Marcin Konik
!!!END: 2015-0m-dd
!!!EED: Marcin Konik
!!!EEV: 
!!!ONB: Encoded in vim by Marcin Konik
!!!CharacterEncoding: utf-8
!!!RDF**kern: l=long note in original notation
!!!RDF**kern: i=editorial accidental
!!muse2ps: z14jc180F
!!!COM: Anonim
!!!CDT: [?]
!!!TXO: Polish
!!!ODT: 
!!!GTL: Hymnbook D
!!!ARL: Opactwo św. Wojciecha, Staniątki 
!!!voices:	1
